Adwaita++/status/16/mail-read.svg

<svg height="16.001" width="16" xmlns="http://www.w3.org/2000/svg">
  <path d="m7.875.001a1 1 0 0 0 -.5.25l-4.906 4a1 1 0 0 0 -.062.031s-.326.298-.657.75c-.223.306-.352.832-.5 1.313a1 1 0 0 0 -.031.031 1 1 0 0 0 -.219.564v.03a1 1 0 0 0 0 .032 1 1 0 0 0 0 .156v7.844a1 1 0 0 0 1 1h12a1 1 0 0 0 1-1v-7.845a1 1 0 0 0 0-.156 1 1 0 0 0 -.218-.656 1 1 0 0 0 -.032-.031 5.087 5.087 0 0 0 -1.125-2 1 1 0 0 0 -.03-.032l-4.971-4.03a1 1 0 0 0 -.656-.25 1 1 0 0 0 -.094 0zm.125 2.281 4.313 3.532.031.03c.021.026.18.25.344.5l-4.688 3.533-4.687-3.532c.026-.04.035-.087.062-.125.191-.262.319-.414.344-.438l.031-.03zm-5 5.094 4.688 3.531.312.22.313-.22 4.687-3.53v6.623h-10z" fill="#474747" opacity=".5"/>
</svg>

<svg xmlns="http://www.w3.org/2000/svg" width="16" height="16.001">
    <path d="M7.875.001a1 1 0 0 0-.5.25l-4.906 4a1 1 0 0 0-.062.031s-.326.298-.657.75c-.223.306-.352.832-.5 1.313a1 1 0 0 0-.031.031A1 1 0 0 0 1 6.94v.03a1 1 0 0 0 0 .032 1 1 0 0 0 0 .156v7.844a1 1 0 0 0 1 1h12a1 1 0 0 0 1-1V7.157a1 1 0 0 0 0-.156 1 1 0 0 0-.218-.656 1 1 0 0 0-.032-.031 5.087 5.087 0 0 0-1.125-2 1 1 0 0 0-.03-.032L8.624.252a1 1 0 0 0-.656-.25 1 1 0 0 0-.094 0zM8 2.282l4.313 3.532.031.03c.021.026.18.25.344.5L8 9.877 3.313 6.345c.026-.04.035-.087.062-.125.191-.262.319-.414.344-.438l.031-.03zM3 7.376l4.688 3.531.312.22.313-.22L13 7.377V14H3z" style="line-height:normal;-inkscape-font-specification:Sans;text-indent:0;text-align:start;text-decoration-line:none;text-transform:none;marker:none" color="#000" font-weight="400" font-family="Sans" overflow="visible" opacity=".5" fill="#474747"/>
</svg>
